X: 22909
T: Larry Get Out Of The Bin
R: reel
M: 4/4
K: Gmajor
DGA|:BG~G2 EGDe|dBed BGED|BG~G2 EGDB|DEGA ~G3A|
BG~G2 EGDe|dBed BGED|B3 G EGDB|DEGA ~G3B|
FG~G2 DEeg|fdBG FGFD|FG~G2 DBGD|DEGA ~G3B|
FG~G2 DEeg|fdBG FGFD|FG~G2 DBGD|DEGA GABc|
|:dGGF ~G2FG|eGGF ~G2FG|EFGA cBGD|EGcE FFDz|
dGGF ~G2FG|eGGF ~G2FG|EFGA cBGD|FGAB ~G3 z:|

